src/images_karasa_jaga_svg/cmd/sc_basicshapes.ring.svg

<svg height="16" viewBox="0 0 4.2333333 4.2333335" width="16" xmlns="http://www.w3.org/2000/svg" xmlns:xlink="http://www.w3.org/1999/xlink"><linearGradient id="a" gradientUnits="userSpaceOnUse" x1="63.999996" x2="63.999996" y1="131.54474" y2="-3.544517"><stop offset="0" stop-color="#7c9fcf"/><stop offset=".5" stop-color="#7c9ece"/><stop offset="1" stop-color="#7b9dcf"/></linearGradient><linearGradient id="b" gradientUnits="userSpaceOnUse" x1="63.999992" x2="63.999992" y1="121.89668" y2="6.103257"><stop offset="0" stop-color="#fff"/><stop offset=".50643778" stop-color="#fff"/><stop offset=".82296139" stop-color="#f1f1f1"/><stop offset=".90625" stop-color="#eaeaea"/><stop offset="1" stop-color="#dfdfdf"/></linearGradient><path d="m64 8.0078125a55.991226 55.991226 0 0 0 -55.9921875 55.9921875 55.991226 55.991226 0 0 0 55.9921875 55.99219 55.991226 55.991226 0 0 0 55.99219-55.99219 55.991226 55.991226 0 0 0 -55.99219-55.9921875zm0 39.9960935a15.996278 15.996278 0 0 1 4.726562.714844 15.996278 15.996278 0 0 1 2.94336 1.244141 15.996278 15.996278 0 0 1 2.634766 1.802734 15.996278 15.996278 0 0 1 1.169921 1.089844 15.996278 15.996278 0 0 1 1.986329 2.501953 15.996278 15.996278 0 0 1 2.302734 5.923828 15.996278 15.996278 0 0 1 .232422 2.71875 15.996278 15.996278 0 0 1 -.714844 4.726562 15.996278 15.996278 0 0 1 -1.244141 2.94336 15.996278 15.996278 0 0 1 -1.802734 2.634766 15.996278 15.996278 0 0 1 -1.089844 1.169921 15.996278 15.996278 0 0 1 -2.501953 1.986329 15.996278 15.996278 0 0 1 -5.923828 2.302734 15.996278 15.996278 0 0 1 -2.71875.232422 15.996278 15.996278 0 0 1 -4.726562-.714844 15.996278 15.996278 0 0 1 -2.94336-1.244141 15.996278 15.996278 0 0 1 -2.634766-1.802734 15.996278 15.996278 0 0 1 -1.169921-1.089844 15.996278 15.996278 0 0 1 -1.986329-2.501953 15.996278 15.996278 0 0 1 -2.302734-5.923828 15.996278 15.996278 0 0 1 -.232422-2.71875 15.996278 15.996278 0 0 1 .08008-1.597656 15.996278 15.996278 0 0 1 .634766-3.128906 15.996278 15.996278 0 0 1 1.244141-2.94336 15.996278 15.996278 0 0 1 1.802734-2.634766 15.996278 15.996278 0 0 1 1.089844-1.169921 15.996278 15.996278 0 0 1 2.501953-1.986329 15.996278 15.996278 0 0 1 5.923826-2.302734 15.996278 15.996278 0 0 1 2.71875-.232422z" fill="url(#a)" transform="scale(.03307292)"/><path d="m64 16.005859a47.993573 47.993573 0 0 0 -47.994141 47.994141 47.993573 47.993573 0 0 0 47.994141 47.99414 47.993573 47.993573 0 0 0 47.99414-47.99414 47.993573 47.993573 0 0 0 -47.99414-47.994141zm0 24.042969a23.951228 23.951228 0 0 1 23.951172 23.951172 23.951228 23.951228 0 0 1 -23.951172 23.951172 23.951228 23.951228 0 0 1 -23.951172-23.951172 23.951228 23.951228 0 0 1 23.951172-23.951172z" fill="url(#b)" transform="scale(.03307292)"/></svg>

<?xml version="1.0" encoding="UTF-8" standalone="no"?>
<!-- Created with Inkscape (http://www.inkscape.org/) -->

<svg
   xmlns:dc="http://purl.org/dc/elements/1.1/"
   xmlns:cc="http://creativecommons.org/ns#"
   xmlns:rdf="http://www.w3.org/1999/02/22-rdf-syntax-ns#"
   xmlns:svg="http://www.w3.org/2000/svg"
   xmlns="http://www.w3.org/2000/svg"
   xmlns:xlink="http://www.w3.org/1999/xlink"
   xmlns:sodipodi="http://sodipodi.sourceforge.net/DTD/sodipodi-0.dtd"
   xmlns:inkscape="http://www.inkscape.org/namespaces/inkscape"
   width="128"
   height="128"
   viewBox="0 0 33.866666 33.866668"
   version="1.1"
   id="svg8"
   inkscape:version="0.92.3 (unknown)"
   sodipodi:docname="sc_basicshapes.ring.svg"
   inkscape:export-filename="/home/rizmut/Dokumen/Rizmut/Github/libreoffice-style-karasa-jaga/build/images_karasa_jaga/cmd/sc_basicshapes.ring.png"
   inkscape:export-xdpi="12"
   inkscape:export-ydpi="12">
  <defs
     id="defs2">
    <linearGradient
       inkscape:collect="always"
       xlink:href="#linearGradient7422"
       id="linearGradient867"
       gradientUnits="userSpaceOnUse"
       gradientTransform="matrix(1.0553848,0,0,1.0553848,-3.5446301,-3.5445165)"
       x1="64"
       y1="128"
       x2="64"
       y2="0" />
    <linearGradient
       id="linearGradient7422">
      <stop
         style="stop-color:#7c9fcf;stop-opacity:1"
         offset="0"
         id="stop7424" />
      <stop
         id="stop5348"
         offset="0.5"
         style="stop-color:#7c9ece;stop-opacity:1" />
      <stop
         id="stop7426"
         offset="1"
         style="stop-color:#7b9dcf;stop-opacity:1" />
    </linearGradient>
    <linearGradient
       inkscape:collect="always"
       xlink:href="#linearGradient3369"
       id="linearGradient861"
       x1="64"
       y1="128"
       x2="64"
       y2="0"
       gradientUnits="userSpaceOnUse"
       gradientTransform="matrix(0.90463616,0,0,0.90463616,6.1032779,6.1032567)" />
    <linearGradient
       id="linearGradient3369">
      <stop
         id="stop3372"
         offset="0"
         style="stop-color:#ffffff;stop-opacity:1;" />
      <stop
         style="stop-color:#ffffff;stop-opacity:1;"
         offset="0.50643778"
         id="stop3374" />
      <stop
         style="stop-color:#f1f1f1;stop-opacity:1;"
         offset="0.82296139"
         id="stop3376" />
      <stop
         id="stop3378"
         offset="0.90625"
         style="stop-color:#eaeaea;stop-opacity:1;" />
      <stop
         id="stop3384"
         offset="1"
         style="stop-color:#dfdfdf;stop-opacity:1;" />
    </linearGradient>
  </defs>
  <sodipodi:namedview
     id="base"
     pagecolor="#ffffff"
     bordercolor="#666666"
     borderopacity="1.0"
     inkscape:pageopacity="0.0"
     inkscape:pageshadow="2"
     inkscape:zoom="2.8"
     inkscape:cx="6.0413814"
     inkscape:cy="69.927366"
     inkscape:document-units="mm"
     inkscape:current-layer="layer1"
     showgrid="true"
     units="px"
     inkscape:window-width="1366"
     inkscape:window-height="706"
     inkscape:window-x="0"
     inkscape:window-y="0"
     inkscape:window-maximized="1">
    <inkscape:grid
       type="xygrid"
       id="grid1421"
       spacingx="2.1166667"
       spacingy="2.1166667"
       empspacing="2" />
  </sodipodi:namedview>
  <metadata
     id="metadata5">
    <rdf:RDF>
      <cc:Work
         rdf:about="">
        <dc:format>image/svg+xml</dc:format>
        <dc:type
           rdf:resource="http://purl.org/dc/dcmitype/StillImage" />
        <dc:title />
      </cc:Work>
    </rdf:RDF>
  </metadata>
  <g
     inkscape:label="Layer 1"
     inkscape:groupmode="layer"
     id="layer1"
     transform="translate(0,-263.13332)">
    <path
       style="fill:url(#linearGradient867);fill-opacity:1;stroke:none;stroke-width:5.12697268;stroke-linecap:round;stroke-linejoin:bevel;stroke-opacity:0.73039198"
       d="M 64 8.0078125 A 55.991226 55.991226 0 0 0 8.0078125 64 A 55.991226 55.991226 0 0 0 64 119.99219 A 55.991226 55.991226 0 0 0 119.99219 64 A 55.991226 55.991226 0 0 0 64 8.0078125 z M 64 48.003906 A 15.996278 15.996278 0 0 1 68.726562 48.71875 A 15.996278 15.996278 0 0 1 71.669922 49.962891 A 15.996278 15.996278 0 0 1 74.304688 51.765625 A 15.996278 15.996278 0 0 1 75.474609 52.855469 A 15.996278 15.996278 0 0 1 77.460938 55.357422 A 15.996278 15.996278 0 0 1 79.763672 61.28125 A 15.996278 15.996278 0 0 1 79.996094 64 A 15.996278 15.996278 0 0 1 79.28125 68.726562 A 15.996278 15.996278 0 0 1 78.037109 71.669922 A 15.996278 15.996278 0 0 1 76.234375 74.304688 A 15.996278 15.996278 0 0 1 75.144531 75.474609 A 15.996278 15.996278 0 0 1 72.642578 77.460938 A 15.996278 15.996278 0 0 1 66.71875 79.763672 A 15.996278 15.996278 0 0 1 64 79.996094 A 15.996278 15.996278 0 0 1 59.273438 79.28125 A 15.996278 15.996278 0 0 1 56.330078 78.037109 A 15.996278 15.996278 0 0 1 53.695312 76.234375 A 15.996278 15.996278 0 0 1 52.525391 75.144531 A 15.996278 15.996278 0 0 1 50.539062 72.642578 A 15.996278 15.996278 0 0 1 48.236328 66.71875 A 15.996278 15.996278 0 0 1 48.003906 64 A 15.996278 15.996278 0 0 1 48.083984 62.402344 A 15.996278 15.996278 0 0 1 48.71875 59.273438 A 15.996278 15.996278 0 0 1 49.962891 56.330078 A 15.996278 15.996278 0 0 1 51.765625 53.695312 A 15.996278 15.996278 0 0 1 52.855469 52.525391 A 15.996278 15.996278 0 0 1 55.357422 50.539062 A 15.996278 15.996278 0 0 1 61.28125 48.236328 A 15.996278 15.996278 0 0 1 64 48.003906 z "
       transform="matrix(0.26458333,0,0,0.26458333,0,263.13332)"
       id="circle865" />
    <path
       style="fill:url(#linearGradient861);fill-opacity:1;stroke:none;stroke-width:4.39464855;stroke-linecap:round;stroke-linejoin:bevel;stroke-opacity:0.73039198"
       d="M 64 16.005859 A 47.993573 47.993573 0 0 0 16.005859 64 A 47.993573 47.993573 0 0 0 64 111.99414 A 47.993573 47.993573 0 0 0 111.99414 64 A 47.993573 47.993573 0 0 0 64 16.005859 z M 64 40.048828 A 23.951228 23.951228 0 0 1 87.951172 64 A 23.951228 23.951228 0 0 1 64 87.951172 A 23.951228 23.951228 0 0 1 40.048828 64 A 23.951228 23.951228 0 0 1 64 40.048828 z "
       transform="matrix(0.26458333,0,0,0.26458333,0,263.13332)"
       id="circle1517" />
  </g>
</svg>
